X:1
T:ນໍ້າຕາຊາຍ
T:ເນື້ອຮ້ອງ & ທຳນອງ : ພົມມະ ພິມມະສອນ ນັກຮ້ອງຕົ້ນສະບັບ : ພົມມະ ພິມມະສອນ
T:≲1970
T:© studiodavong
C:Phomma PHIMMASONE
Z:© studiodavong
%%score ( 1 2 )
L:1/8
Q:1/4=64
M:4/4
K:Ab
V:1 treble nm="Piano" snm="Pno."
V:2 treble 
V:1
"^Slow" z8 || %1
w: |
"Ab""_(Intro) ______________________________________________________________________________________________" [A,-C]2 A,B,/A,/"Cm" [C-E]2 CE/=D/ | %2
w: |
"Db" [D-F]2 DF/D/"Ddim" [A-d]2 AG/F/ |"Eb" [E-G]2 EF/E/ [EBd]2"Eb+" [F_ce]2 || %4
w: ||
"Ab""^A" [EAce] E cA{B} ccBA |{A} C3 E"Ab7" E4 |"Db" z B,D{A}B ABGB |"Eb" G3 (E/F/)"Ab"{E} C4 | %8
w: * ຢົດ ນໍ້າ ຢາດ ຍ້ອຍ ໄຫຼ ລອຍ ໄປ|ທົ່ວ ນັຍ ຕາ|ບົ່ງ ບອກ ສັນ ຍາ ເຖິງ ຄວາມ ຣະ|ທົມ ໝອງ- * ໄໝ້|
"Cm" z CFC"Fm" EFAF |"Bbm"{F} B3 B"Db" ABec |"Ab" cEAF"F7" FG{A}cA |"Bbm""Fdim" B8 |: %12
w: ສຸດ ຈັ້ງ ສຸດ ທົນ ສຸດ ຕ້ານ ຕໍ່|ໄຫວ ມັນ ເຈັບ ມັນ ຊໍ້າ ພຽງ|ໃດ ຢົດ ນໍ້າ ຕາ ຊາຍ ຈຶ່ງ ໄຫຼ ຫຼາກ|ລິນ...|
"Eb""^B" z E cA{B} ccBA |"Ab" C3 E"Ab7" E4 | z"Db"{D} B,D{A}B ABGB |"Eb" G3 (E/F/)"Ab"{E} C4 | %16
w: ສຸດ ຮັກ ສຸດ ແຄ້ນ ແໜ້ນ ເຫຼືອ ຈະ|ເອີ່ຍ ຣຳ ພັນ|ເມື່ອ ຄຳ ສາ ບານ ເມື່ອ ຄວາມ ສັມ|ພັນ ສູນ- * ສິ້ນ|
"Cm" z CFC"Fm" EFAF |"Bbm" B3 B"Db" AB{c}e{e}B |"Ab" cE"Fm"FA"Bbm" Bc"Eb"{B}cA |"Ab" A8 || %20
w: ຢົດ ນໍ້າ ຈາກ ໃຈ ຈຶ່ງ ໄຫຼ ຫຼາກ|ລິນ ມັນ ຫຼັ່ງ ໃຫ້ ຟ້າ ໄດ້|ຍິນ ປະ ກາດ ໃຫ້ ດິນ ຮັບ ຮູ້ ຄວາມ|ນັຍ...|
"G""^C" z GG{B}G"Gsus4" cc{G}AG |"Fm" F4"Db" z A{F}AA |"Ab" C3 A"Eb"{A} EF{c}ec |"Ab""Cm" c8 | %24
w: ອົດ ສາ ເຝົ້າ ຮັກ ດ້ວຍ ຫົວ ໃຈ|ຈິງ ຮັກ ເໜືອ ທຸກ|ສິ່ງ ຮັກ ຍິ່ງ ກວ່າ ຮັກ ໃດ|ໆ|
"Fm" z B (c/A/-)A/B/"Ab" c{c}EFA |"Bbm" B3 A"Eb" BcGF |"Ab"{A} E3{E} C"F7" EAF{A}c | %27
w: ພຽນ ເຝົ້າ- * * ຖ ນອມ ເຝົ້າ ຄອຍ ຫ່ວງ|ໃຍ ແຕ່ ນາງ ກໍ ຍັງ ທຳ|ໄດ້ ໂທ້ ໃຈ ໜໍ ໃຈ ຂອງ|
"Bbm""Fdim" B8 ||"Eb""^D" z E{B} cA{B} c{B}cBA |"Ab"{A} C3{D} E"Ab7" E4 | z"Db"{D} B,D{A}B ABGB | %31
w: ຄົນ...|ຢົດ ນໍ້າ ຢາດ ຍ້ອຍ ໄຫຼ ລິນ ຄ່ອຍ|ໆ ອາບ ໜ້າ|ນັ້ນ ຄື ສັນ ຍາ ຂອງ ຄວາມ ຣະ|
"Eb" G3 (E/F/)"Ab" C4 |"Cm" z CF{F}C"Fm" EFAF |"Bbm" B3 B"Db" AB{c}eB | %34
w: ທົມ ໝອງ- * ໝົ່ນ|ຫຼັ່ງ ແລ້ວ ໃຫ້ ນາງ ຈົນ ສິ້ນ ກ|ມົນ ມັນ ຫຼັ່ງ ດັ່ງ ນໍ້າ ເອີ່|
"Ab"{ce} cE"Fm"{A}FA"Bbm" Bc"Eb"BA!dacoda! ||1"Ab""Db""Dbm""_(Solo verse B)" A8 :|2O"Ab""^E" A8 || %37
w: ລົ້ນ ຫຼັ່ງ ໃຫ້ ແກ່ ຄົນ ຫົວ ໃຈ ໂລ|ເລ...|ເລ...|
"Fm" [FAc]4"Db" z AAF |"Eb" [EGB]4 [EA][FB][Gc][Be] |"Ab6" !arpeggio!!fermata![A,EAcf]8!fine! |] %40
w: |||
V:2
 x8 || x8 | x8 | x8 || x8 | x8 | x8 | x8 | x8 | x8 | x8 | x8 |: x8 | x8 | x8 | x8 | x8 | x8 | x8 | %19
 x8 || x8 | x8 | x8 | x8 | x8 | x8 | x8 | x8 || x8 | x8 | x8 | x8 | x8 | x8 | x8 ||1 x8 :|2 %36
 x4"_(Coda) __________________________________________________________________________" z EEC || %37
 x8 | x8 | x8 |] %40

